public/img/birthsigns/mage.svg

<svg width="200" height="201" viewBox="0 0 200 201" fill="none" xmlns="http://www.w3.org/2000/svg">
<g clip-path="url(#clip0_259_3333)">
<path fill-rule="evenodd" clip-rule="evenodd" d="M171.669 60.1293L167.749 27.9727L166.757 28.0954L170.677 60.252L171.669 60.1293Z" fill="#0D0A07"/>
<path fill-rule="evenodd" clip-rule="evenodd" d="M171.968 59.7493L115.752 44.708L115.497 45.6749L171.713 60.7163L171.968 59.7493Z" fill="#0D0A07"/>
<path fill-rule="evenodd" clip-rule="evenodd" d="M133.445 77.9274L114.673 44.9467L113.805 45.4477L132.577 78.4284L133.445 77.9274Z" fill="#0D0A07"/>
<path fill-rule="evenodd" clip-rule="evenodd" d="M114.752 44.9816L94.1983 49.41L94.4076 50.3953L114.961 45.967L114.752 44.9816Z" fill="#0D0A07"/>
<path fill-rule="evenodd" clip-rule="evenodd" d="M93.8609 49.3676L88.0383 35.8321L87.1208 36.2326L92.9433 49.7681L93.8609 49.3676Z" fill="#0D0A07"/>
<path fill-rule="evenodd" clip-rule="evenodd" d="M94.0282 49.8929L81.3272 45.0783L80.9772 46.0151L93.6782 50.8297L94.0282 49.8929Z" fill="#0D0A07"/>
<path fill-rule="evenodd" clip-rule="evenodd" d="M81.686 44.2994L65.0314 49.4375L65.3218 50.3944L81.9763 45.2563L81.686 44.2994Z" fill="#0D0A07"/>
<path fill-rule="evenodd" clip-rule="evenodd" d="M63.3458 48.4555L51.7417 40.5753L51.1852 41.406L62.7892 49.2863L63.3458 48.4555Z" fill="#0D0A07"/>
<path fill-rule="evenodd" clip-rule="evenodd" d="M69.5198 99.2023L43.1432 77.2517L42.5063 78.0282L68.8829 99.9788L69.5198 99.2023Z" fill="#0D0A07"/>
<path fill-rule="evenodd" clip-rule="evenodd" d="M110.974 91.6228L133.479 78.4237L132.978 77.5579L110.473 90.757L110.974 91.6228Z" fill="#0D0A07"/>
<path fill-rule="evenodd" clip-rule="evenodd" d="M149.077 106.458L133.551 77.9792L132.674 78.4641L148.201 106.943L149.077 106.458Z" fill="#0D0A07"/>
<path fill-rule="evenodd" clip-rule="evenodd" d="M144.159 127.46L148.436 105.927L147.455 105.73L143.178 127.262L144.159 127.46Z" fill="#0D0A07"/>
<path fill-rule="evenodd" clip-rule="evenodd" d="M143.988 127.978L111.07 91.9965L110.335 92.6791L143.252 128.66L143.988 127.978Z" fill="#0D0A07"/>
<path fill-rule="evenodd" clip-rule="evenodd" d="M142.807 127.87L142.367 156.532L143.366 156.548L143.807 127.885L142.807 127.87Z" fill="#0D0A07"/>
<path fill-rule="evenodd" clip-rule="evenodd" d="M111.074 92.001L93.3765 75.7263L92.7022 76.4702L110.4 92.7449L111.074 92.001Z" fill="#0D0A07"/>
<path fill-rule="evenodd" clip-rule="evenodd" d="M68.7115 99.2996L92.9433 76.1895L92.2558 75.4581L68.024 98.5681L68.7115 99.2996Z" fill="#0D0A07"/>
<path fill-rule="evenodd" clip-rule="evenodd" d="M93.4655 76.0924L94.7383 49.1653L93.7394 49.1174L92.4666 76.0445L93.4655 76.0924Z" fill="#0D0A07"/>
<path fill-rule="evenodd" clip-rule="evenodd" d="M68.0989 99.0347L102.032 123.675L102.617 122.858L68.6836 98.2176L68.0989 99.0347Z" fill="#0D0A07"/>
<path fill-rule="evenodd" clip-rule="evenodd" d="M102.035 123.677L143.646 156.532L144.263 155.74L102.652 122.884L102.035 123.677Z" fill="#0D0A07"/>
<path fill-rule="evenodd" clip-rule="evenodd" d="M101.046 123.724L103.631 140.957L104.619 140.807L102.035 123.573L101.046 123.724Z" fill="#0D0A07"/>
<path fill-rule="evenodd" clip-rule="evenodd" d="M103.535 140.982L95.8303 181.258L96.8122 181.448L104.516 141.173L103.535 140.982Z" fill="#0D0A07"/>
<path fill-rule="evenodd" clip-rule="evenodd" d="M125.43 198.401L97.6403 181.092L97.1171 181.944L124.907 199.254L125.43 198.401Z" fill="#0D0A07"/>
<path fill-rule="evenodd" clip-rule="evenodd" d="M139.599 191.831L143.784 155.51L142.791 155.394L138.606 191.715L139.599 191.831Z" fill="#0D0A07"/>
<path fill-rule="evenodd" clip-rule="evenodd" d="M125.565 198.296L140.12 192.205L139.739 191.281L125.184 197.372L125.565 198.296Z" fill="#0D0A07"/>
<path fill-rule="evenodd" clip-rule="evenodd" d="M150.537 86.5962L133.943 77.8338L133.481 78.7208L150.076 87.4833L150.537 86.5962Z" fill="#0D0A07"/>
<path fill-rule="evenodd" clip-rule="evenodd" d="M162.674 95.4735L151.788 87.586L151.207 88.3998L162.093 96.2873L162.674 95.4735Z" fill="#0D0A07"/>
<path fill-rule="evenodd" clip-rule="evenodd" d="M148.452 3.20996L115.045 44.6785L115.82 45.3113L149.226 3.84282L148.452 3.20996Z" fill="#0D0A07"/>
<path fill-rule="evenodd" clip-rule="evenodd" d="M167.144 25.0597L149.954 3.62145L149.178 4.25254L166.369 25.6908L167.144 25.0597Z" fill="#0D0A07"/>
<path d="M166.757 23.6442C165.1 23.6439 163.757 24.9867 163.757 26.6436C163.757 28.3005 165.1 29.6439 166.757 29.6442C168.414 29.6445 169.757 28.3016 169.757 26.6447C169.757 24.9879 168.414 23.6445 166.757 23.6442Z" fill="#0D0A07"/>
<path d="M114.961 42.8434C113.304 42.843 111.961 44.1859 111.961 45.8428C111.961 47.4996 113.304 48.843 114.961 48.8434C116.618 48.8437 117.961 47.5008 117.961 45.8439C117.961 44.1871 116.618 42.8437 114.961 42.8434Z" fill="#0D0A07"/>
<path d="M93.1918 46.6231C91.5922 47.0548 90.6408 48.7028 91.0667 50.304C91.4926 51.9051 93.1347 52.8531 94.7343 52.4214C96.3339 51.9897 97.2854 50.3417 96.8594 48.7405C96.4335 47.1393 94.7915 46.1913 93.1918 46.6231Z" fill="#0D0A07"/>
<path d="M87.2822 32.854C85.6254 32.8537 84.2823 34.1966 84.2823 35.8535C84.2823 37.5103 85.6254 38.8537 87.2822 38.854C88.939 38.8543 90.2822 37.5114 90.2822 35.8546C90.2822 34.1977 88.939 32.8543 87.2822 32.854Z" fill="#0D0A07"/>
<path d="M80.3094 42.2133C78.6526 42.213 77.3095 43.5558 77.3095 45.2127C77.3095 46.8696 78.6526 48.213 80.3094 48.2133C81.9663 48.2136 83.3094 46.8707 83.3094 45.2138C83.3094 43.557 81.9663 42.2136 80.3094 42.2133Z" fill="#0D0A07"/>
<path d="M64.2598 46.8929C62.603 46.8926 61.2599 48.2355 61.2599 49.8924C61.2599 51.5492 62.603 52.8926 64.2598 52.8929C65.9166 52.8932 67.2598 51.5503 67.2598 49.8935C67.2598 48.2366 65.9166 46.8932 64.2598 46.8929Z" fill="#0D0A07"/>
<path d="M52.1851 38.5758C50.5283 38.5755 49.1852 39.9184 49.1852 41.5753C49.1852 43.2321 50.5283 44.5755 52.1851 44.5758C53.8419 44.5761 55.185 43.2332 55.185 41.5764C55.185 39.9195 53.8419 38.5761 52.1851 38.5758Z" fill="#0D0A07"/>
<path d="M91.8351 72.2328C90.1782 72.2325 88.8351 73.5754 88.8351 75.2322C88.8351 76.8891 90.1782 78.2325 91.8351 78.2328C93.4919 78.2331 94.835 76.8902 94.835 75.2334C94.835 73.5765 93.4919 72.2331 91.8351 72.2328Z" fill="#0D0A07"/>
<path d="M68.6882 95.8076C67.0314 95.8072 65.6883 97.1501 65.6883 98.807C65.6883 100.464 67.0314 101.807 68.6882 101.808C70.345 101.808 71.6881 100.465 71.6881 98.8081C71.6881 97.1513 70.345 95.8079 68.6882 95.8076Z" fill="#0D0A07"/>
<path d="M33.4999 66.8761C31.8431 66.8758 30.5 68.2187 30.5 69.8756C30.5 71.5324 31.8431 72.8758 33.4999 72.8761C35.1567 72.8764 36.4999 71.5336 36.4999 69.8767C36.4999 68.2198 35.1567 66.8764 33.4999 66.8761Z" fill="#0D0A07"/>
<path d="M46.179 70.5162C44.5221 70.5159 43.179 71.8588 43.179 73.5157C43.179 75.1725 44.5221 76.5159 46.179 76.5162C47.8358 76.5165 49.1789 75.1736 49.1789 73.5168C49.1789 71.8599 47.8358 70.5165 46.179 70.5162Z" fill="#0D0A07"/>
<path d="M38.3745 79.0584C36.7177 79.0581 35.3746 80.401 35.3746 82.0579C35.3746 83.7147 36.7177 85.0581 38.3745 85.0584C40.0313 85.0587 41.3744 83.7158 41.3744 82.059C41.3744 80.4021 40.0313 79.0587 38.3745 79.0584Z" fill="#0D0A07"/>
<path d="M101.47 120.006C99.8134 120.006 98.4703 121.349 98.4703 123.006C98.4703 124.663 99.8134 126.006 101.47 126.006C103.127 126.007 104.47 124.664 104.47 123.007C104.47 121.35 103.127 120.007 101.47 120.006Z" fill="#0D0A07"/>
<path d="M142.807 152.792C141.15 152.791 139.807 154.134 139.807 155.791C139.807 157.448 141.15 158.791 142.807 158.792C144.464 158.792 145.807 157.449 145.807 155.792C145.807 154.135 144.464 152.792 142.807 152.792Z" fill="#0D0A07"/>
<path d="M110.078 88.3604C108.421 88.3601 107.078 89.703 107.078 91.3599C107.078 93.0167 108.421 94.3601 110.078 94.3604C111.735 94.3608 113.078 93.0179 113.078 91.361C113.078 89.7042 111.735 88.3608 110.078 88.3604Z" fill="#0D0A07"/>
<path d="M147.744 103.041C146.087 103.041 144.744 104.384 144.744 106.04C144.744 107.697 146.087 109.041 147.744 109.041C149.401 109.041 150.744 107.698 150.744 106.042C150.744 104.385 149.401 103.041 147.744 103.041Z" fill="#0D0A07"/>
<path d="M143.033 124.482C141.376 124.481 140.033 125.824 140.033 127.481C140.033 129.138 141.376 130.481 143.033 130.482C144.69 130.482 146.033 129.139 146.033 127.482C146.033 125.825 144.69 124.482 143.033 124.482Z" fill="#0D0A07"/>
<path d="M139.012 188.737C137.355 188.737 136.012 190.08 136.012 191.736C136.012 193.393 137.355 194.737 139.012 194.737C140.669 194.737 142.012 193.394 142.012 191.738C142.012 190.081 140.669 188.737 139.012 188.737Z" fill="#0D0A07"/>
<path d="M123.76 194.575C122.103 194.574 120.76 195.917 120.76 197.574C120.76 199.231 122.103 200.574 123.76 200.575C125.417 200.575 126.76 199.232 126.76 197.575C126.76 195.918 125.417 194.575 123.76 194.575Z" fill="#0D0A07"/>
<path d="M97.1171 177.439C95.4603 177.438 94.1172 178.781 94.1172 180.438C94.1172 182.095 95.4603 183.438 97.1171 183.439C98.774 183.439 100.117 182.096 100.117 180.439C100.117 178.782 98.774 177.439 97.1171 177.439Z" fill="#0D0A07"/>
<path d="M103.848 137.296C102.191 137.296 100.848 138.638 100.848 140.295C100.848 141.952 102.191 143.296 103.848 143.296C105.504 143.296 106.847 141.953 106.847 140.296C106.847 138.639 105.504 137.296 103.848 137.296Z" fill="#0D0A07"/>
<path d="M132.554 75.1866C130.897 75.1863 129.554 76.5292 129.554 78.1861C129.554 79.8429 130.897 81.1863 132.554 81.1866C134.211 81.1869 135.554 79.844 135.554 78.1872C135.554 76.5303 134.211 75.1869 132.554 75.1866Z" fill="#0D0A07"/>
<path d="M149.772 83.9361C148.115 83.9358 146.772 85.2787 146.772 86.9355C146.772 88.5924 148.115 89.9358 149.772 89.9361C151.428 89.9364 152.772 88.5935 152.772 86.9366C152.772 85.2798 151.428 83.9364 149.772 83.9361Z" fill="#0D0A07"/>
<path d="M161.997 93.0388C160.34 93.0385 158.997 94.3814 158.997 96.0383C158.997 97.6951 160.34 99.0385 161.997 99.0388C163.654 99.0391 164.997 97.6962 164.997 96.0394C164.997 94.3825 163.654 93.0391 161.997 93.0388Z" fill="#0D0A07"/>
<path d="M149.178 0.619629C147.521 0.61932 146.178 1.96221 146.178 3.61907C146.178 5.27592 147.521 6.61932 149.178 6.61963C150.835 6.61994 152.178 5.27704 152.178 3.62019C152.178 1.96333 150.835 0.619938 149.178 0.619629Z" fill="#0D0A07"/>
<path d="M170.211 55.4567C168.555 55.4564 167.212 56.7993 167.212 58.4562C167.212 60.113 168.555 61.4564 170.211 61.4567C171.868 61.457 173.211 60.1141 173.211 58.4573C173.211 56.8004 171.868 55.457 170.211 55.4567Z" fill="#0D0A07"/>
<path fill-rule="evenodd" clip-rule="evenodd" d="M32.8519 69.5135L38.4971 82.9069L46.9537 73.0333L32.8519 69.5135ZM34.4615 70.8922L38.7615 81.0938L45.2028 73.5732L34.4615 70.8922Z" fill="#0D0A07"/>
<path fill-rule="evenodd" clip-rule="evenodd" d="M38.4971 82.9069L46.9537 73.0333L32.8519 69.5135L38.4971 82.9069ZM38.7615 81.0938L45.2028 73.5732L34.4615 70.8922L38.7615 81.0938Z" fill="#0D0A07"/>
</g>
<defs>
<clipPath id="clip0_259_3333">
<rect width="200" height="200" fill="white" transform="translate(0 0.575195)"/>
</clipPath>
</defs>
</svg>

<svg xmlns="http://www.w3.org/2000/svg" width="200" height="201" fill="none"><g fill="#0D0A07" clip-path="url(#a)"><path fill-rule="evenodd" d="m171.669 60.13-3.92-32.157-.992.122 3.92 32.157z" clip-rule="evenodd"/><path fill-rule="evenodd" d="m171.968 59.75-56.216-15.042-.255.967 56.216 15.041zM133.445 77.927l-18.772-32.98-.868.5 18.772 32.981z" clip-rule="evenodd"/><path fill-rule="evenodd" d="M114.752 44.982 94.198 49.41l.21.985 20.553-4.428zM93.86 49.368l-5.822-13.536-.917.4 5.822 13.536z" clip-rule="evenodd"/><path fill-rule="evenodd" d="m94.028 49.893-12.7-4.815-.35.937 12.7 4.815z" clip-rule="evenodd"/><path fill-rule="evenodd" d="m81.686 44.3-16.655 5.138.29.956 16.655-5.138zM63.346 48.456l-11.604-7.88-.557.83 11.604 7.88zM69.52 99.202l-26.377-21.95-.637.776 26.377 21.95zM110.974 91.623l22.505-13.2-.501-.865-22.505 13.199z" clip-rule="evenodd"/><path fill-rule="evenodd" d="m149.077 106.458-15.526-28.479-.877.485 15.527 28.479z" clip-rule="evenodd"/><path fill-rule="evenodd" d="m144.159 127.46 4.277-21.533-.981-.197-4.277 21.532z" clip-rule="evenodd"/><path fill-rule="evenodd" d="M143.988 127.978 111.07 91.997l-.735.682 32.917 35.981z" clip-rule="evenodd"/><path fill-rule="evenodd" d="m142.807 127.87-.44 28.662.999.016.441-28.663zM111.074 92.001 93.376 75.726l-.674.744L110.4 92.745zM68.712 99.3l24.231-23.11-.687-.732-24.232 23.11z" clip-rule="evenodd"/><path fill-rule="evenodd" d="m93.466 76.092 1.272-26.927-.999-.048-1.272 26.928zM68.099 99.035l33.933 24.64.585-.817-33.933-24.64zM102.035 123.677l41.611 32.855.617-.792-41.611-32.856z" clip-rule="evenodd"/><path fill-rule="evenodd" d="m101.046 123.724 2.585 17.233.988-.15-2.584-17.234zM103.535 140.982l-7.705 40.276.982.19 7.704-40.275zM125.43 198.401l-27.79-17.309-.523.852 27.79 17.31zM139.599 191.831l4.185-36.321-.993-.116-4.185 36.321z" clip-rule="evenodd"/><path fill-rule="evenodd" d="m125.565 198.296 14.555-6.091-.381-.924-14.555 6.091zM150.537 86.596l-16.594-8.762-.462.887 16.595 8.762zM162.674 95.474l-10.886-7.888-.581.814 10.886 7.887zM148.452 3.21l-33.407 41.469.775.632 33.406-41.468zM167.144 25.06 149.954 3.62l-.776.632 17.191 21.438z" clip-rule="evenodd"/><path d="M166.757 23.644a3 3 0 1 0 0 6 3 3 0 1 0 0-6M114.961 42.843a3 3 0 1 0 0 6 3 3 0 1 0 0-6M93.192 46.623a3.013 3.013 0 0 0-2.125 3.681 2.987 2.987 0 0 0 3.667 2.117 3.013 3.013 0 0 0 2.125-3.68 2.987 2.987 0 0 0-3.667-2.118M87.282 32.854a3 3 0 1 0 0 6 3 3 0 1 0 0-6M80.31 42.213a3 3 0 1 0 0 6 3 3 0 1 0 0-6M64.26 46.893a3 3 0 1 0 0 6 3 3 0 1 0 0-6M52.185 38.576a3 3 0 1 0 0 6 3 3 0 1 0 0-6M91.835 72.233a3 3 0 1 0 0 6 3 3 0 1 0 0-6M68.688 95.808a3 3 0 1 0 0 6 3 3 0 1 0 0-6M33.5 66.876a3 3 0 1 0 0 6 3 3 0 1 0 0-6M46.179 70.516a3 3 0 1 0 0 6 3 3 0 1 0 0-6M38.375 79.058a3 3 0 1 0 0 6 3 3 0 1 0 0-6M101.47 120.006a3 3 0 1 0 0 6 3 3 0 0 0 0-6M142.807 152.792a3 3 0 0 0-3 2.999 3 3 0 1 0 3-2.999M110.078 88.36a3 3 0 1 0 0 6 3 3 0 1 0 0-6M147.744 103.041a3 3 0 1 0 0 6 3 3 0 0 0 0-6M143.033 124.482a3 3 0 0 0-3 2.999 3 3 0 1 0 3-2.999M139.012 188.737a3 3 0 1 0 0 6 3 3 0 0 0 0-6M123.76 194.575a3 3 0 0 0-3 2.999 3 3 0 1 0 3-2.999M97.117 177.439a3 3 0 0 0-3 2.999 3 3 0 1 0 3-2.999M103.848 137.296a2.999 2.999 0 1 0 0 6 3 3 0 0 0 0-6M132.554 75.187a3 3 0 1 0 0 6 3 3 0 1 0 0-6M149.772 83.936a3 3 0 1 0 0 6 3 3 0 1 0 0-6M161.997 93.039a3 3 0 1 0 0 6 3 3 0 1 0 0-6M149.178.62a3 3 0 1 0 0 6 3 3 0 1 0 0-6M170.211 55.457a2.999 2.999 0 0 0 0 6 3 3 0 1 0 0-6"/><path fill-rule="evenodd" d="m32.852 69.514 5.645 13.393 8.457-9.874zm1.61 1.378 4.3 10.202 6.44-7.52z" clip-rule="evenodd"/><path fill-rule="evenodd" d="m38.497 82.907 8.457-9.874-14.102-3.52zm.264-1.813 6.442-7.52-10.742-2.682z" clip-rule="evenodd"/></g><defs><clipPath id="a"><path fill="#fff" d="M0 .575h200v200H0z"/></clipPath></defs></svg>
